X:1
T:Behold With Joy
M:2/2
L:1/4
K:G
 G2 G A| B3/2- c/2- B d| c- B A2| G4| G2 B A| B3/2- c/2- B d| c- B- A G|\
 A4| A2 A A| B3/2- A/2- G A| B3/2- c/2- d ^c| d4| d2 B c| d3 B| c- B A2|\
 G4|
